storage/app/icons/phosphoricons/fill/linkedin-logo-fill.svg

<svg xmlns="http://www.w3.org/2000/svg" fill="currentColor" viewBox="0 0 256 256"><path d="M216 24H40a16 16 0 0 0-16 16v176a16 16 0 0 0 16 16h176a16 16 0 0 0 16-16V40a16 16 0 0 0-16-16M96 176a8 8 0 0 1-16 0v-64a8 8 0 0 1 16 0Zm-8-80a12 12 0 1 1 12-12 12 12 0 0 1-12 12m96 80a8 8 0 0 1-16 0v-36a20 20 0 0 0-40 0v36a8 8 0 0 1-16 0v-64a8 8 0 0 1 15.79-1.78A36 36 0 0 1 184 140Z"/></svg>

<svg xmlns="http://www.w3.org/2000/svg" viewBox="0 0 256 256" fill="currentColor"><path d="M216,24H40A16,16,0,0,0,24,40V216a16,16,0,0,0,16,16H216a16,16,0,0,0,16-16V40A16,16,0,0,0,216,24ZM96,176a8,8,0,0,1-16,0V112a8,8,0,0,1,16,0ZM88,96a12,12,0,1,1,12-12A12,12,0,0,1,88,96Zm96,80a8,8,0,0,1-16,0V140a20,20,0,0,0-40,0v36a8,8,0,0,1-16,0V112a8,8,0,0,1,15.79-1.78A36,36,0,0,1,184,140Z"/></svg>
